;FLAVOR:Marlin
;TIME:379
;Filament used: 10.5961m
;Layer height: 4
;MINX:97
;MINY:97
;MINZ:4
;MAXX:123
;MAXY:123
;MAXZ:28
;TARGET_MACHINE.NAME:Creality Ender-3 V3 KE
;Generated with Cura_SteamEngine 5.8.0
M82 ;absolute extrusion mode
M220 S100 ;Reset Feedrate
M221 S100 ;Reset Flowrate

G28 ;Home

G92 E0 ;Reset Extruder
G1 Z2.0 F3000 ;Move Z Axis up
G1 X-2.0 Y20 Z0.28 F5000.0 ;Move to start position
M109 S0
G1 X-2.0 Y145.0 Z0.28 F1500.0 E15 ;Draw the first line
G1 X-1.7 Y145.0 Z0.28 F5000.0 ;Move to side a little
G1 X-1.7 Y20 Z0.28 F1500.0 E30 ;Draw the second line
G92 E0 ;Reset Extruder
G1 E-1 F1800 ;Retract a bit
G1 Z2.0 F3000 ;Move Z Axis up
G1 E0 F1800
G92 E0
G92 E0
G1 F2400 E-0.8
;LAYER_COUNT:7
;LAYER:0
M107
;MESH:testocubo.STL
G0 F300 X110 Y115 Z4
;TYPE:WALL-INNER
G1 F2400 E0
G1 F300 X115 Y115 E33.26014
G1 X115 Y105 E99.78041
G1 X105 Y105 E166.30068
G1 X105 Y115 E232.82095
G1 X110 Y115 E266.08108
G1 F2400 E265.28108
G0 F300 X110 Y119
G1 F2400 E266.08108
G1 F300 X119 Y119 E325.94932
G1 X119 Y101 E445.68581
G1 X101 Y101 E565.4223
G1 X101 Y119 E685.15878
G1 X110 Y119 E745.02703
G1 F2400 E744.22703
G0 F300 X110 Y123
;TYPE:WALL-OUTER
G1 F2400 E745.02703
G1 F300 X123 Y123 E831.50338
G1 X123 Y97 E1004.45608
G1 X97 Y97 E1177.40878
G1 X97 Y123 E1350.36148
G1 X110 Y123 E1436.83783
G1 F2400 E1436.03783
G0 F300 X110 Y111.7
;TYPE:SKIN
G1 F2400 E1436.83783
G1 F352.9 X108.3 Y111.7 E1446.45001
G1 X108.3 Y108.3 E1465.67437
G1 X111.7 Y108.3 E1484.89873
G1 X111.7 Y111.7 E1504.12309
G1 X110 Y111.7 E1513.73527
G1 F2400 E1512.93527
;MESH:NONMESH
G0 F300 X110 Y111.7 Z8
G0 X110 Y115
;TIME_ELAPSED:84.138532
;LAYER:1
M106 S85
;TYPE:WALL-INNER
;MESH:testocubo.STL
G1 F2400 E1513.73527
G1 F375 X115 Y115 E1546.9954
G1 X115 Y105 E1613.51567
G1 X105 Y105 E1680.03594
G1 X105 Y115 E1746.55621
G1 X110 Y115 E1779.81635
G1 F2400 E1779.01635
G0 F300 X110 Y119
G1 F2400 E1779.81635
G1 F375 X119 Y119 E1839.68459
G1 X119 Y101 E1959.42108
G1 X101 Y101 E2079.15756
G1 X101 Y119 E2198.89405
G1 X110 Y119 E2258.76229
G1 F2400 E2257.96229
G0 F300 X110 Y123
;TYPE:WALL-OUTER
G1 F2400 E2258.76229
G1 F375 X123 Y123 E2345.23864
G1 X123 Y97 E2518.19134
G1 X97 Y97 E2691.14405
G1 X97 Y123 E2864.09675
G1 X110 Y123 E2950.5731
G1 F2400 E2949.7731
G0 F300 X110 Y111.7
;TYPE:SKIN
G1 F2400 E2950.5731
G1 F441.2 X108.3 Y111.7 E2960.18528
G1 X108.3 Y108.3 E2979.40964
G1 X111.7 Y108.3 E2998.634
G1 X111.7 Y111.7 E3017.85835
G1 X110 Y111.7 E3027.47053
G1 F2400 E3026.67053
;MESH:NONMESH
G0 F300 X110 Y111.7 Z12
G0 X110 Y115
;TIME_ELAPSED:126.449766
;LAYER:2
M106 S170
;TYPE:WALL-INNER
;MESH:testocubo.STL
G1 F2400 E3027.47053
G1 F450 X115 Y115 E3060.73067
G1 X115 Y105 E3127.25094
G1 X105 Y105 E3193.77121
G1 X105 Y115 E3260.29148
G1 X110 Y115 E3293.55161
G1 F2400 E3292.75161
G0 F300 X110 Y119
G1 F2400 E3293.55161
G1 F450 X119 Y119 E3353.41986
G1 X119 Y101 E3473.15634
G1 X101 Y101 E3592.89283
G1 X101 Y119 E3712.62931
G1 X110 Y119 E3772.49756
G1 F2400 E3771.69756
G0 F300 X110 Y123
;TYPE:WALL-OUTER
G1 F2400 E3772.49756
G1 F450 X123 Y123 E3858.97391
G1 X123 Y97 E4031.92661
G1 X97 Y97 E4204.87931
G92 E0
G1 X97 Y123 E172.9527
G1 X110 Y123 E259.42905
G1 F2400 E258.62905
G0 F300 X110 Y111.7
;TYPE:SKIN
G1 F2400 E259.42905
G1 F529.4 X108.3 Y111.7 E269.04123
G1 X108.3 Y108.3 E288.26559
G1 X111.7 Y108.3 E307.48995
G1 X111.7 Y111.7 E326.71431
G1 X110 Y111.7 E336.32649
G1 F2400 E335.52649
;MESH:NONMESH
G0 F300 X110 Y111.7 Z16
G0 X110 Y115
;TIME_ELAPSED:199.593491
;LAYER:3
M106 S255
;TYPE:WALL-INNER
;MESH:testocubo.STL
G1 F2400 E336.32649
G1 F450 X115 Y115 E369.58662
G1 X115 Y105 E436.10689
G1 X105 Y105 E502.62716
G1 X105 Y115 E569.14743
G1 X110 Y115 E602.40757
G1 F2400 E601.60757
G0 F300 X110 Y119
G1 F2400 E602.40757
G1 F450 X119 Y119 E662.27581
G1 X119 Y101 E782.0123
G1 X101 Y101 E901.74878
G1 X101 Y119 E1021.48527
G1 X110 Y119 E1081.35351
G1 F2400 E1080.55351
G0 F300 X110 Y123
;TYPE:WALL-OUTER
G1 F2400 E1081.35351
G1 F450 X123 Y123 E1167.82986
G1 X123 Y97 E1340.78256
G1 X97 Y97 E1513.73527
G1 X97 Y123 E1686.68797
G1 X110 Y123 E1773.16432
G1 F2400 E1772.36432
G0 F300 X110 Y111.7
;TYPE:SKIN
G1 F2400 E1773.16432
G1 F529.4 X108.3 Y111.7 E1782.7765
G1 X108.3 Y108.3 E1802.00086
G1 X111.7 Y108.3 E1821.22521
G1 X111.7 Y111.7 E1840.44957
G1 X110 Y111.7 E1850.06175
G1 F2400 E1849.26175
;MESH:NONMESH
G0 F300 X110 Y111.7 Z20
G0 X110 Y115
;TIME_ELAPSED:235.870165
;LAYER:4
;TYPE:WALL-INNER
;MESH:testocubo.STL
G1 F2400 E1850.06175
G1 F450 X115 Y115 E1883.32189
G1 X115 Y105 E1949.84216
G1 X105 Y105 E2016.36243
G1 X105 Y115 E2082.8827
G1 X110 Y115 E2116.14283
G1 F2400 E2115.34283
G0 F300 X110 Y119
G1 F2400 E2116.14283
G1 F450 X119 Y119 E2176.01108
G1 X119 Y101 E2295.74756
G1 X101 Y101 E2415.48405
G1 X101 Y119 E2535.22053
G1 X110 Y119 E2595.08878
G1 F2400 E2594.28878
G0 F300 X110 Y123
;TYPE:WALL-OUTER
G1 F2400 E2595.08878
G1 F450 X123 Y123 E2681.56513
G1 X123 Y97 E2854.51783
G1 X97 Y97 E3027.47053
G1 X97 Y123 E3200.42323
G1 X110 Y123 E3286.89959
G1 F2400 E3286.09959
G0 F300 X110 Y111.7
;TYPE:SKIN
G1 F2400 E3286.89959
G1 F529.4 X108.3 Y111.7 E3296.51176
G1 X108.3 Y108.3 E3315.73612
G1 X111.7 Y108.3 E3334.96048
G1 X111.7 Y111.7 E3354.18484
G1 X110 Y111.7 E3363.79702
G1 F2400 E3362.99702
;MESH:NONMESH
G0 F300 X110 Y111.7 Z24
G0 X110 Y115
;TIME_ELAPSED:272.146839
;LAYER:5
;TYPE:WALL-INNER
;MESH:testocubo.STL
G1 F2400 E3363.79702
G1 F450 X115 Y115 E3397.05715
G1 X115 Y105 E3463.57742
G1 X105 Y105 E3530.09769
G1 X105 Y115 E3596.61796
G1 X110 Y115 E3629.8781
G1 F2400 E3629.0781
G0 F300 X110 Y119
G1 F2400 E3629.8781
G1 F450 X119 Y119 E3689.74634
G1 X119 Y101 E3809.48283
G1 X101 Y101 E3929.21931
G1 X101 Y119 E4048.9558
G1 X110 Y119 E4108.82404
G1 F2400 E4108.02404
G0 F300 X110 Y123
;TYPE:WALL-OUTER
G1 F2400 E4108.82404
G1 F450 X123 Y123 E4195.30039
G92 E0
G1 X123 Y97 E172.9527
G1 X97 Y97 E345.9054
G1 X97 Y123 E518.85811
G1 X110 Y123 E605.33446
G1 F2400 E604.53446
G0 F300 X110 Y111.7
;TYPE:SKIN
G1 F2400 E605.33446
G1 F529.4 X108.3 Y111.7 E614.94664
G1 X108.3 Y108.3 E634.17099
G1 X111.7 Y108.3 E653.39535
G1 X111.7 Y111.7 E672.61971
G1 X110 Y111.7 E682.23189
G1 F2400 E681.43189
;MESH:NONMESH
G0 F300 X110 Y111.7 Z28
G0 X110 Y115
;TIME_ELAPSED:345.194775
;LAYER:6
;TYPE:WALL-INNER
;MESH:testocubo.STL
G1 F2400 E682.23189
G1 F450 X115 Y115 E715.49203
G1 X115 Y105 E782.0123
G1 X105 Y105 E848.53257
G1 X105 Y115 E915.05284
G1 X110 Y115 E948.31297
G1 F2400 E947.51297
G0 F300 X110 Y119
G1 F2400 E948.31297
G1 F450 X119 Y119 E1008.18121
G1 X119 Y101 E1127.9177
G1 X101 Y101 E1247.65419
G1 X101 Y119 E1367.39067
G1 X110 Y119 E1427.25892
G1 F2400 E1426.45892
G0 F300 X110 Y123
;TYPE:WALL-OUTER
G1 F2400 E1427.25892
G1 F450 X123 Y123 E1513.73527
G1 X123 Y97 E1686.68797
G1 X97 Y97 E1859.64067
G1 X97 Y123 E2032.59337
G1 X110 Y123 E2119.06972
G1 F2400 E2118.26972
G0 F300 X110 Y111.7
;TYPE:SKIN
G1 F2400 E2119.06972
G1 F529.4 X108.3 Y111.7 E2128.6819
G1 X108.3 Y108.3 E2147.90626
G1 X111.7 Y108.3 E2167.13062
G1 X111.7 Y111.7 E2186.35498
G1 X110 Y111.7 E2195.96716
;TIME_ELAPSED:379.922637
G1 F2400 E2195.16716
M107
G91 ;Relative positionning
G1 E-2 F2700 ;Retract a bit
G1 E-2 Z0.2 F2400 ;Retract and raise Z
G1 X5 Y5 F3000 ;Wipe out
G1 Z5 ;Raise Z more
G90 ;Absolute positionning

G1 X2 Y218 F3000 ;Present print
M106 S0 ;Turn-off fan
M104 S0 ;Turn-off hotend
M140 S0 ;Turn-off bed

M84 X Y E ;Disable all steppers but Z
M82 ;absolute extrusion mode
;End of Gcode
;SETTING_3 {"global_quality": "[general]\\nversion = 4\\nname = Draft Quality #2
;SETTING_3 \\ndefinition = creality_ender3v3ke\\n\\n[metadata]\\ntype = quality_
;SETTING_3 changes\\nquality_type = draft\\nsetting_version = 23\\n\\n[values]\\
;SETTING_3 nadhesion_type = none\\nlayer_height = 4.0\\nlayer_height_0 = 4.0\\nm
;SETTING_3 aterial_bed_temperature = 0\\nsupport_enable = True\\n\\n", "extruder
;SETTING_3 _quality": ["[general]\\nversion = 4\\nname = Draft Quality #2\\ndefi
;SETTING_3 nition = creality_ender3v3ke\\n\\n[metadata]\\ntype = quality_changes
;SETTING_3 \\nquality_type = draft\\nsetting_version = 23\\nposition = 0\\n\\n[v
;SETTING_3 alues]\\ninfill_pattern = lightning\\ninfill_sparse_density = 60.0\\n
;SETTING_3 line_width = 4.0\\nmaterial_print_temperature = 0\\nspeed_layer_0 = 5
;SETTING_3 .0\\nspeed_print = 15.0\\nspeed_travel = 5.0\\n\\n"]}
